X:1
T:Gartenlieder. Sechs Gesänge für Sopran, Alt, Tenor und Bass
T:Abendlich schon rauscht der Wald.
T:Abendlich schon rauscht der Wald.
T:Gartenlieder No. 5
T:Fanny Hensel, get. Mendelssohn-Bartholdy (1805–1847), 1846
T:Joseph von Eichendorff (1788–1857)
T:Copyright © 2017 mirabilos <tg@mirsolutions.de> Original © 1846 Fanny Hensel, Text © Joseph von Eichendorff No claim is taken on the variant text from M 91.034 (see below). Provided that these terms and disclaimer and all copyright notices are retained or reproduced in an accompanying document, permission is granted to deal in this work without restriction, including un‐ limited rights to use, publicly perform, distribute, sell, modify, merge, give away, or sublicence. This work is provided “AS IS” and WITHOUT WARRANTY of any kind, to the utmost extent permitted by applicable law, neither express nor implied; without malicious intent or gross negligence. In no event may a licensor, author or contributor be held liable for indirect, direct, other damage, loss, or other issues arising in any way out of dealing in the work, even if advised of the possibility of such damage or existence of a defect, except proven that it results out of said person’s immediate fault when using the work as intended.
T:Im „Chorbuch Romantik“ des Karl Heinrich Möseler Verlag, Wolfenbüttel (Hauptband M 91.034) ISBN 978‒3‒7877‒3034‒6 © 1990 von Hans-Jürgen Habelt, Gottfried Wolters (Herausgeber) finden sich abweichende Textstellen: Statt       „wie    die   Welt  ver‐brau‐se“ heißt es „Wald und  Welt  ver‐sau‐sen“. Statt „sehnt sich tief “ heißt es „sehnt sich recht “. Dieses Zitat sollte keine urheberrechtlich relevante Schaffenshöhe erreichen; der Ersteller dieses freien Notensatzes erhebt keinen Anspruch auf den Text. Die entsprechenden Stellen in der Lyrik sind hier farblich (rot) markiert.
T:gemeinfrei; MuseScore-Notensatz © (wo anwendbar) 2017 mirabilos Ⓕ The MirOS Licence
T:gemeinfrei; MuseScore-Notensatz © (wo anwendbar) 2017 mirabilos Ⓕ The MirOS Licence
T:gemeinfrei; MuseScore-Notensatz © (wo anwendbar) 2017 mirabilos Ⓕ The MirOS Licence
T:gemeinfrei; MuseScore-Notensatz © (wo anwendbar) 2017 mirabilos Ⓕ The MirOS Licence
T:gemeinfrei; MuseScore-Notensatz © (wo anwendbar) 2017 mirabilos Ⓕ The MirOS Licence
T:gemeinfrei; MuseScore-Notensatz © (wo anwendbar) 2017 mirabilos Ⓕ The MirOS Licence
C:Fanny Hensel, get. Mendelssohn-Bartholdy (1805–1847), 1846
Z:Joseph von Eichendorff (1788–1857)
Z:gemeinfrei; MuseScore-Notensatz © (wo anwendbar) 2017 mirabilos Ⓕ The MirOS Licence
%%score [ 1 2 3 4 ]
L:1/8
Q:1/4=80
M:4/4
K:C
V:1 treble nm="Sopran" snm="S."
V:2 treble nm="Alt" snm="A."
V:3 treble-8 nm="Tenor" snm="T."
V:4 bass nm="Baß" snm="B."
V:1
"^Andante"!p! c3 B A2 E2 | F2 A2 E4 |!<(! F2 F2 E2 ^D2!<)! | A4 ^G2 z2 |!p! c3 B A2 E2 | %5
w: A- bend- lich schon|rauscht der Wald,|aus den tie- fen|Grün- den,|dro- ben wird der|
 F2 ^F2 G4 |"_cresc." G2 c2 B2 c2 |!>(! (e3 d) c2!>)! z2 |!p! c3 B B2 ^A2 | z8 | ^A2 A2 e2 ^d2 | %11
w: Herr nun bald|an die Ster- ne|zün- * den.|Wie so stil- le||in den Schlün- den,|
 z4 B2 B2 | e2 d2 c2 A2 | F2 D2 A2 A2 | A4 ^G2 z2 | c3 B A2 E2 | F2 A2 E4 | F2 F2 E2 ^D2 | %18
w: wie so|stil- le, wie so|stil- le in den|Schlün- den,|a- bend- lich nur|rauscht der Wald,|aus den tie- fen|
 (c4 ^G4) | A4 z4 |!<(! ^c2 c2 c3 B!<)! |!>(! A2 =F2 E4!>)! | F2 E2 F2 E2 | A4 ^G2 z2 | %24
w: Grün- *|den.|Al- les geht zu|sei- ner Ruh,|wie die Welt ver-|brau- se;|
!pp!!<(! c2 c2 c3 B!<)! |!>(! A2 F2 E4!>)! | F2 E2 B2 cA | !fermata!^d4 !fermata!e4 | %28
w: schau- ernd hört der|Wand’- rer zu,|sehnt sich tief nach _|Hau- se,|
!f! f3 e =d2 c2 | B2 A2 ^G2 z2 |!>(! f2 e2 d2 c2!>)! | !fermata!c4 !fermata!B4 |!p! c3 B A2 E2 | %33
w: schau- ernd hört der|Wand’- rer zu,|sehnt sich tief nach|Hau- se|hier in Wal- des|
 F2 A2 A2 E2 |!>(! c3 B A2 F2!>)! | (^D4 E2) ^G2 | A4 z4 |] %37
w: grü- ner Klau- se,|Herz geh end- lich|auch _ zur|Ruh.|
V:2
!p! c3 B A2 C2 | D2 B,2 C4 |!<(! C2 C2 B,2 A,2!<)! | ^D4 E2 z2 |!p! c3 B A2 C2 | C2 C2 D4 | %6
w: A- bend- lich schon|rauscht der Wald,|aus den tie- fen|Grün- den,|dro- ben wird der|Herr nun bald|
"_cresc." E2 C2 F2 F2 |!>(! F4 E2!>)! z2 | z8 |!p! E3 ^D D2 E2 | z8 | ^F2 F2 G2 F2 | z8 | %13
w: an die Ster- ne|zün- den.||Wie so stil- le||in den Schlün- den,||
 z4 B,2 C2 | E4 E2 z2 | c3 B A2 C2 | D2 B,2 C4 | z8 | z4 B,4 | C2 z2 z4 |!<(! E2 ^E2 ^F3 F!<)! | %21
w: in den|Schlün- den,|a- bend- lich nur|rauscht der Wald,||der|Wald.|Al- les geht zu|
!>(! ^F2 =F2 E4!>)! | D2 ^C2 D2 C2 | D4 D2 z2 |!pp!!<(! E2 E2 F3 F!<)! |!>(! F2 F2 E4!>)! | %26
w: sei- ner Ruh,|wie die Welt ver-|brau- se;|schau- ernd hört der|Wand’- rer zu,|
 D2 C2 D2 ^D2 | !fermata!A4 !fermata!^G4 | z8 |!f! F3 E D2 C2 |!>(! (B,3 C) D2 E2!>)! | %31
w: sehnt sich tief nach|Hau- se,||sehnt sich tief nach|Hau- * se, nach|
 !fermata!D4 !fermata!D4 |!p! c3 B A2 C2 | D2 B,2 C2 C2 | z8 | z4 D4 | C4 z4 |] %37
w: Hau- se|hier in Wal- des|grü- ner Klau- se,||zur|Ruh.|
V:3
!p! c3 B A2 A2 | D2 F2 A4 |!<(! A2 A2 G2 A2!<)! | c4 B2 z2 |!p! c3 B A2 A2 | C2 _E2 D4 | %6
w: A- bend- lich schon|rauscht der Wald,|aus den tie- fen|Grün- den,|dro- ben wird der|Herr nun bald|
"_cresc." G2 G2 ^G2 A2 |!>(! B4 =G2!>)! z2 | z8 |!p! G3 ^F F2 G2 | z8 | ^d2 d2 e2 d2 | z4 e2 c2 | %13
w: an die Ster- ne|zün- den.||Wie so stil- le||in den Schlün- den,|wie so|
 A2 F2 F2 ^F2 | c4 B2 z2 | c3 B A2 A2 | D2 F2 A4 | z8 | z4 B4 | A2 z2 z4 |!<(! ^c2 c2 d3 d!<)! | %21
w: stil- le in den|Schlün- den,|a- bend- lich nur|rauscht der Wald,||der|Wald.|Al- les geht zu|
!>(! d2 d2 ^c4!>)! | B2 ^c2 B2 c2 | B4 B2 z2 |!pp!!<(! =c2 c2 d3 d!<)! |!>(! d2 d2 c4!>)! | %26
w: sei- ner Ruh,|wie die Welt ver-|brau- se;|schau- ernd hört der|Wand’- rer zu,|
 B2 c2 ^G2 A2 | !fermata!c4 !fermata!B4 | z8 |!f! d3 c B2 A2 |!>(! (^G3 A) B2 c2!>)! | %31
w: sehnt sich tief nach|Hau- se,||sehnt sich tief nach|Hau- * se, nach|
 !fermata!d4 !fermata!d4 |!p! c3 B A2 A2 | D2 F2 E2 A2 | z8 | z4 B4 | A4 z4 |] %37
w: Hau- se|hier in Wal- des|grü- ner Klau- se,||zur|Ruh.|
V:4
!p! C3 B, A,2 A,,2 | A,,2 A,,2 A,,4 |!<(! A,2 A,2 G,2 F,2!<)! | E,4 E,2 z2 |!p! C3 B, A,2 A,,2 | %5
w: A- bend- lich schon|rauscht der Wald,|aus den tie- fen|Grün- den,|dro- ben wird der|
 A,,2 A,,2 B,,4 |"_cresc." C,2 E,2 D,2 C,2 |!>(! G,,4 C,2!>)! z2 | z8 |!p! C,3 C, C,2 C,2 | z8 | %11
w: Herr nun bald|an die Ster- ne|zün- den.||Wie so stil- le||
 B,2 B,2 B,2 B,2 | z8 | z4 D,2 ^D,2 | E,4 E,2 z2 | C3 B, A,2 A,,2 | A,,2 A,,2 A,,4 | z8 | z4 E,4 | %19
w: in den Schlün- den,||in den|Schlün- den,|a- bend- lich nur|rauscht der Wald,||der|
 A,,2 z2 z4 |!<(! A,2 A,2 A,3 A,!<)! |!>(! A,2 A,2 A,4!>)! | ^G,2 A,2 G,2 A,2 | F,4 E,2 z2 | %24
w: Wald.|Al- les geht zu|sei- ner Ruh,|wie die Welt ver-|brau- se;|
!pp!!<(! A,2 A,2 A,3 A,!<)! |!>(! A,2 A,2 A,4!>)! | ^G,2 A,2 F,2 F,2 | !fermata!E,4 !fermata!E,4 | %28
w: schau- ernd hört der|Wand’- rer zu,|sehnt sich tief nach|Hau- se,|
 z8 | z8 |!f!!>(! (D3 C) B,2 A,2!>)! | !fermata!^G,4 !fermata!G,4 |!p! C3 B, A,2 A,,2 | %33
w: ||sehnt sich tief nach|Hau- se|hier in Wal- des|
 A,,2 A,,2 A,,2 A,,2 | z8 | z4 E,4 | A,,4 z4 |] %37
w: grü- ner Klau- se,||zur|Ruh.|

